src/assets/outline/UserSquare.svg

<svg width="24" height="24" viewBox="0 0 24 24"  xmlns="http://www.w3.org/2000/svg">
<path d="M15.0001 22.7498H9.00014C7.68014 22.7498 6.58015 22.6198 5.65015 22.3398C5.31015 22.2398 5.09015 21.9098 5.11015 21.5598C5.36015 18.5698 8.39015 16.2197 12.0001 16.2197C15.6101 16.2197 18.6301 18.5598 18.8901 21.5598C18.9201 21.9198 18.7001 22.2398 18.3501 22.3398C17.4201 22.6198 16.3201 22.7498 15.0001 22.7498ZM6.72015 21.0598C7.38015 21.1898 8.13015 21.2498 9.00014 21.2498H15.0001C15.8701 21.2498 16.6201 21.1898 17.2801 21.0598C16.7501 19.1398 14.5601 17.7197 12.0001 17.7197C9.44015 17.7197 7.25015 19.1398 6.72015 21.0598Z" />
<path d="M15 2H9C4 2 2 4 2 9V15C2 18.78 3.14 20.85 5.86 21.62C6.08 19.02 8.75 16.97 12 16.97C15.25 16.97 17.92 19.02 18.14 21.62C20.86 20.85 22 18.78 22 15V9C22 4 20 2 15 2ZM12 14.17C10.02 14.17 8.42 12.56 8.42 10.58C8.42 8.60002 10.02 7 12 7C13.98 7 15.58 8.60002 15.58 10.58C15.58 12.56 13.98 14.17 12 14.17Z" stroke="white" stroke-width="1.5" stroke-linecap="round" stroke-linejoin="round"/>
<path d="M11.9999 14.92C9.60992 14.92 7.66992 12.97 7.66992 10.58C7.66992 8.19002 9.60992 6.25 11.9999 6.25C14.3899 6.25 16.3299 8.19002 16.3299 10.58C16.3299 12.97 14.3899 14.92 11.9999 14.92ZM11.9999 7.75C10.4399 7.75 9.16992 9.02002 9.16992 10.58C9.16992 12.15 10.4399 13.42 11.9999 13.42C13.5599 13.42 14.8299 12.15 14.8299 10.58C14.8299 9.02002 13.5599 7.75 11.9999 7.75Z" />
</svg>

<?xml version="1.0" encoding="UTF-8"?>
<svg width="24" height="24" viewBox="0 0 24 24" xmlns="http://www.w3.org/2000/svg">
 <path d="m15 22.75h-6c-1.32 0-2.42-0.13-3.35-0.41-0.34-0.1-0.56-0.43-0.54-0.78 0.25-2.99 3.28-5.3401 6.89-5.3401 3.61 0 6.63 2.3401 6.89 5.3401 0.03 0.36-0.19 0.68-0.54 0.78-0.93 0.28-2.03 0.41-3.35 0.41zm-8.28-1.69c0.66 0.13 1.41 0.19 2.28 0.19h6c0.87 0 1.62-0.06 2.28-0.19-0.53-1.92-2.72-3.3401-5.28-3.3401-2.56 0-4.75 1.4201-5.28 3.3401z"/>
 <path d="m15 2h-6c-5 0-7 2-7 7v6c0 3.78 1.14 5.85 3.86 6.62 0.22-2.6 2.89-4.65 6.14-4.65s5.92 2.05 6.14 4.65c2.72-0.77 3.86-2.84 3.86-6.62v-6c0-5-2-7-7-7zm-3 12.17c-1.98 0-3.58-1.61-3.58-3.59 0-1.98 1.6-3.58 3.58-3.58s3.58 1.6 3.58 3.58c0 1.98-1.6 3.59-3.58 3.59z" stroke="#fff" stroke-linecap="round" stroke-linejoin="round" stroke-width="1.5"/>
 <path d="m12 14.92c-2.39 0-4.33-1.95-4.33-4.34 0-2.39 1.94-4.33 4.33-4.33 2.39 0 4.33 1.94 4.33 4.33 0 2.39-1.94 4.34-4.33 4.34zm0-7.17c-1.56 0-2.83 1.27-2.83 2.83 0 1.57 1.27 2.84 2.83 2.84s2.83-1.27 2.83-2.84c0-1.56-1.27-2.83-2.83-2.83z"/>
</svg>
